X: 6
T:Cheshire round
M:3/2
L:1/4
S:Marsden
Z:ps
K:D
f>gedf/g/a|be2dcB/A/|fe/f/ g/f/e/d/ f/g/a|Ad2FED||
B>cAGF/G/ A/F/|Ee2dcB/A/|B/A/ B/c/ d/B/ A/F/ E/F/ G/E/|Dd2FED||
BdGdFd|Ee2dcB/A/|BdABFA|Dd2FED||
B/A/ B/c/ d/c/ B/A/ F/G/ A/F/|Ee2dc B/A/|B/A/ B/c/ d/c/ B/A/ E/F/ G/E/ |
Dd2FED||
